statics/public/assets/images/technologies/rescript.svg

<svg height="250" viewBox="0 0 250 250" width="250" xmlns="http://www.w3.org/2000/svg" xmlns:xlink="http://www.w3.org/1999/xlink"><linearGradient id="a" x1="50%" x2="86.027088%" y1="0%" y2="96.7384%"><stop offset="0" stop-color="#e84f4f"/><stop offset=".408823" stop-color="#db4646"/><stop offset=".998911" stop-color="#cb3939"/></linearGradient><g fill="none"><path d="m0 250v-250h250v250z" fill="url(#a)"/><path d="m171.41 123.016c16.393 0 29.683-13.29 29.683-29.6827 0-16.3932-13.29-29.6824-29.683-29.6824s-29.682 13.2892-29.682 29.6824c0 16.3927 13.289 29.6827 29.682 29.6827z" fill="#000" fill-opacity=".2"/><path d="m169.41 121.016c16.393 0 29.683-13.29 29.683-29.6827 0-16.3932-13.29-29.6824-29.683-29.6824s-29.682 13.2892-29.682 29.6824c0 16.3927 13.289 29.6827 29.682 29.6827z" fill="#fff"/><path d="m67.416 89.6876c0-9.4228 0-14.1358 1.8411-17.7409 1.6101-3.1711 4.185-5.7496 7.354-7.3641 3.6001-1.831 8.3131-1.8309 17.7408-1.8309l21.5021-2.0915 2.061 2.0915v109.3993c0 7.841-.569 11.366-1.851 14.455-.846 2.042-2.086 3.898-3.649 5.46-1.563 1.563-3.418 2.803-5.461 3.648-3.091 1.282-6.445 1.68-14.2841 1.68-7.8411 0-11.7642 0-14.8537-1.282-2.0422-.845-3.8978-2.085-5.4608-3.648-1.5631-1.562-2.803-3.418-3.649-5.46-1.282-3.091-1.282-7.014-1.282-14.853z" fill="#000" fill-opacity=".2"/><path d="m65.3176 87.5824c0-9.4227 0-14.1358 1.8411-17.7408 1.6101-3.1712 4.1851-5.7496 7.354-7.3641 3.6001-1.831 8.3131-1.831 17.7408-1.831h23.5635v109.3985c0 7.842 0 11.765-1.282 14.854-.846 2.042-2.086 3.898-3.649 5.46-1.563 1.563-3.419 2.803-5.461 3.648-3.091 1.282-7.014 1.282-14.8534 1.282-7.8412 0-11.7642 0-14.8538-1.282-2.0422-.845-3.8977-2.085-5.4608-3.648-1.5631-1.562-2.803-3.418-3.649-5.46-1.282-3.091-1.282-7.014-1.282-14.854z" fill="#fff"/></g></svg>

<?xml version="1.0" encoding="UTF-8"?>
<svg width="250px" height="250px" viewBox="0 0 250 250" version="1.1" xmlns="http://www.w3.org/2000/svg" xmlns:xlink="http://www.w3.org/1999/xlink">
    <title>rescript</title>
    <defs>
        <linearGradient x1="50%" y1="0%" x2="86.0270882%" y2="96.7384%" id="linearGradient-1">
            <stop stop-color="#E84F4F" offset="0%"></stop>
            <stop stop-color="#DB4646" offset="40.8823%"></stop>
            <stop stop-color="#CB3939" offset="99.8911%"></stop>
        </linearGradient>
    </defs>
    <g id="Page-1" stroke="none" stroke-width="1" fill="none" fill-rule="evenodd">
        <g id="rescript-brandmark" fill-rule="nonzero">
            <polygon id="Path" fill="url(#linearGradient-1)" points="0 250 0 0 250 0 250 250"></polygon>
            <path d="M171.41,123.016 C187.803,123.016 201.093,109.726 201.093,93.3333 C201.093,76.9401 187.803,63.6509 171.41,63.6509 C155.017,63.6509 141.728,76.9401 141.728,93.3333 C141.728,109.726 155.017,123.016 171.41,123.016 Z" id="Path" fill-opacity="0.2" fill="#000000"></path>
            <path d="M169.41,121.016 C185.803,121.016 199.093,107.726 199.093,91.3333 C199.093,74.9401 185.803,61.6509 169.41,61.6509 C153.017,61.6509 139.728,74.9401 139.728,91.3333 C139.728,107.726 153.017,121.016 169.41,121.016 Z" id="Path" fill="#FFFFFF"></path>
            <path d="M67.416,89.6876 C67.416,80.2648 67.416,75.5518 69.2571,71.9467 C70.8672,68.7756 73.4421,66.1971 76.6111,64.5826 C80.2112,62.7516 84.9242,62.7517 94.3519,62.7517 L115.854,60.6602 L117.915,62.7517 L117.915,172.151 C117.915,179.992 117.346,183.517 116.064,186.606 C115.218,188.648 113.978,190.504 112.415,192.066 C110.852,193.629 108.997,194.869 106.954,195.714 C103.863,196.996 100.509,197.394 92.6699,197.394 C84.8288,197.394 80.9057,197.394 77.8162,196.112 C75.774,195.267 73.9184,194.027 72.3554,192.464 C70.7923,190.902 69.5524,189.046 68.7064,187.004 C67.4244,183.913 67.4244,179.99 67.4244,172.151 L67.416,89.6876 Z" id="Path" fill-opacity="0.2" fill="#000000"></path>
            <path d="M65.3176,87.5824 C65.3176,78.1597 65.3176,73.4466 67.1587,69.8416 C68.7688,66.6704 71.3438,64.092 74.5127,62.4775 C78.1128,60.6465 82.8258,60.6465 92.2535,60.6465 L115.817,60.6465 L115.817,170.045 C115.817,177.887 115.817,181.81 114.535,184.899 C113.689,186.941 112.449,188.797 110.886,190.359 C109.323,191.922 107.467,193.162 105.425,194.007 C102.334,195.289 98.411,195.289 90.5716,195.289 C82.7304,195.289 78.8074,195.289 75.7178,194.007 C73.6756,193.162 71.8201,191.922 70.257,190.359 C68.6939,188.797 67.454,186.941 66.608,184.899 C65.326,181.808 65.326,177.885 65.326,170.045 L65.3176,87.5824 Z" id="Path" fill="#FFFFFF"></path>
        </g>
    </g>
</svg>
